svg/fluentui-system-icons/ic_fluent_arrow_step_in_24_filled.svg

<svg width="24" height="24" viewBox="0 0 24 24" fill="none" xmlns="http://www.w3.org/2000/svg">
<path d="M12 2C12.4142 2 12.75 2.33579 12.75 2.75V12.0063L16.2342 8.70554C16.5349 8.42066 17.0096 8.43349 17.2945 8.73419C17.5793 9.03489 17.5665 9.50959 17.2658 9.79446L12.5158 14.2945C12.2265 14.5685 11.7735 14.5685 11.4842 14.2945L6.73419 9.79446C6.43349 9.50959 6.42066 9.03489 6.70554 8.73419C6.99041 8.43349 7.46511 8.42066 7.76581 8.70554L11.25 12.0063V2.75C11.25 2.33579 11.5858 2 12 2ZM15 19C15 20.6569 13.6569 22 12 22C10.3431 22 9 20.6569 9 19C9 17.3431 10.3431 16 12 16C13.6569 16 15 17.3431 15 19Z" fill="#212121"/>
</svg>

<svg xmlns="http://www.w3.org/2000/svg" width="24" height="24"><path d="M12 2a.75.75 0 0 1 .75.75v9.256l3.484-3.3a.75.75 0 1 1 1.032 1.088l-4.75 4.5a.75.75 0 0 1-1.032 0l-4.75-4.5a.75.75 0 1 1 1.032-1.088l3.484 3.3V2.75A.75.75 0 0 1 12 2Zm3 17a3 3 0 1 1-6 0 3 3 0 0 1 6 0Z"/></svg>
